!!!id: bhatk3199a2
!!!vol: 3
!!!page: 200
!!!antara: Jiski nahin
!!!raag: bihag
!!!taal: teental
!!!tempo: madhyalaya
!!Alternative
**kern
!!data: // >GM  -  G  M/  P  -  N  >DN/  S'  -  S'  S'/  >NS'  R'  S'  -/
==1
eq
2f
4e
4f
=
2g
4b
aq
4b
=
2cc
4cc
4cc
=
bq
4cc
4dd
2cc
!!data: // P  -  N  -/  N  -  S'S'  >DNN/  DN  S'R'  -  S'/  %P  -  >GM  G/
==2
2g
2b
=
2b
8cc
8cc
aq
8b
8b
=
8a
8b
8cc
[8dd
4dd]
4cc
=
2gS
eq
4f
4e
!!data: // >SN,  S  G  M/  P  N  S'  S'/  PP  NS'  G'R'  S'N/  DP  MG  RS  N,S/
==3
cq
4B
4c
4e
4f
=
4g
4b
4cc
4cc
=
8g
8g
8b
8cc
8ee
8dd
8cc
8b
=
8a
8g
8f
8e
8d
8c
8B
8c
==
*-
